X:1
T:Veiled in Darkness Judah Lay
T:Johann Georg Ebeling, 1666
T:Veiled in Darkness Judah Lay
T:Public Domain
T:Public Domain
C:Johann Georg Ebeling, 1666
Z:Public Domain
%%score ( 1 2 ) ( 3 4 )
L:1/8
M:none
K:F
V:1 treble 
V:2 treble 
V:3 bass 
V:4 bass 
V:1
 [CF]3 [CG] [CF]2 C2 | [DF]2 [EG]2 [FA]4 | [CA]2 [Fc]2 [FB]2 [FA]2 | [FG]2 [EG]2 F4 | %4
w: 1.~Veiled in dark- ness|dah lay, Wait-|ing for the prom-|ised day, While|
w: 2.~Still the earth in|ness lies. Up|from death’s dark vale|a- rise Voic-|
w: 3.~Light of light, we|bly pray, Shine|up- on Thy world|to- day; Break|
 [CF]3 [CG] [CF]2 C2 | [DF]2 [EG]2 [FA]4 | [CA]2 [Fc]2 [FB]2 [FA]2 | [FG]2 [EG]2 F4 | %8
w: cross the sha- dowy|Streamed a flood|of glor- ious light,|Heav’n- ly voic-|
w: of a world in|Prayers of men|who seek re- lief:|Now our dark-|
w: gloom of our dark|Fill our souls|with love and light,|Send Thy bless-|
 [CA]2 [FA]2 [EG]2 [Gc]2 | [G=B]2 [Gd]2 [Ec]4 | [CA]3 [CG] [B,B]2 [CA]2 | [DG]2 (CB,) [A,F]4 |] %12
w: chant- ing then, “Peace|on earth, good|will to men.” *||
w: pierce a- gain, “Peace|on earth, good|will to men.” *||
w: Word a- gain, “Peace|on earth, good|will to men.” *||
V:2
 x6 C2 | x8 | x8 | x4 F4 | x6 C2 | x8 | x8 | x4 F4 | x8 | x8 | x8 | x2 G2 x4 |] %12
w: Ju-|||a-|night|||es|||||
w: dark-|||es|grief,|||ness|||||
w: hum-|||the|night,|||èd|||||
V:3
 [F,A,]3 [E,G,] [F,A,]2 (F,E,) | [D,A,]2 [C,C]2 [F,C]4 | F,2 [F,A,]2 [D,D]2 [F,C]2 | %3
 B,,2 z B, [F,A,]4 | [F,A,]3 [E,G,] [F,A,]2 (F,E,) | [D,A,]2 [C,C]2 [F,C]4 | %6
 F,2 [F,A,]2 [D,D]2 [F,C]2 | C,2 z B, [F,A,]4 | [F,A,]2 [F,C]2 [C,C]2 [E,C]2 | %9
 [G,D]2 [G,=B,]2 [C,C]4 | F,3 [E,G,] [D,F,]2 F,2 | [B,,F,]2 [C,E,]2 [F,,F,]4 |] %12
V:4
 x6 A,2 | x8 | F,2 x6 | C3 C,2 x3 | x6 A,2 | x8 | F,2 x6 | C3 C,2 x3 | x8 | x8 | F,3 F,2 x3 | x8 |] %12

